X: 31
M:C|
L:1/8
K:D
u(FE)|\
|:uA2|\
dcde dAFA | dcdB A2(FD) | edef ecAc | gfed B2d2 |
dcde dAFA | dcdB AFDF | G2(BG) F2(AF) | GABc d2:|


